X: 98
T:Jota de Edelmiro
M:3/4
L:1/8
Q:250
C:Trad
S:Rep. Edelmiro Represas
R:Jota
K:C
EDEF | GFED C2-| C2 EDEF | G2 "W"A2 G2- | G"F."c GABc | d2c2B2 | A2G2E2
|GFED| C2- |1 C2 :|2 |:
C2 EGEG| c2 EGEG | c2 EGEG | c2 Bc "W"A2 | G2 DEFD | G2 DEFD | G2 DEFD |
 G2FG "W"D2 :|
C4 (3GAB | c2 G2 E2 |: C4 G2 | E4 G2 |E4 G2 | {C}G2 c2 Bc | A4 F2 | D4 F
2| D4 F2 |{C}F2B2A2| 
G3"F."c G2 | "W"E2C2G2| "W"E2C2G2 | {C}G2 c2 Bc| A4 c2 |B2 d2c2| B2A2G2
| F2 EFED :| C2 ||

